src/actions/symbolic/layers-button-symbolic.svg

<svg width="16px" height="16px" version="1.1" xmlns="http://www.w3.org/2000/svg">
 <g fill="#363636" stroke-linecap="round" stroke-width="2">
  <path d="m8 2.875-6.375 2.5625 6.375 2.5625 6.4062-2.5625zm0.0019531 1.0762 3.7129 1.4863-3.7148 1.4844-3.6934-1.4844z" color="#000000"/>
  <path d="m8 5.875-2.6426 1.0625 1.3398 0.53906 1.3047-0.52539 1.3105 0.52539 1.3457-0.53906-2.6582-1.0625zm-3.9844 1.6016-2.3906 0.96094 6.375 2.5625 6.4062-2.5625-2.4023-0.96094-1.3457 0.53906 1.0566 0.42188-3.7148 1.4844-3.6934-1.4844 1.0488-0.42188-1.3398-0.53906z" color="#000000"/>
  <path d="m8 8.875-2.6426 1.0625 1.3398 0.53906 1.3047-0.52539 1.3105 0.52539 1.3457-0.53906zm-3.9844 1.6016-2.3906 0.96094 6.375 2.5625 6.4062-2.5625-2.4023-0.96094-1.3457 0.53906 1.0566 0.42188-3.7148 1.4844-3.6934-1.4844 1.0488-0.42188z" color="#000000"/>
 </g>
</svg>

<svg xmlns="http://www.w3.org/2000/svg" width="16" height="16">
    <g fill="#050505" fill-opacity=".7" stroke-linecap="round" stroke-width="2" color="#000">
        <path d="M8 2.875 1.625 5.438 8 8l6.406-2.562zm.002 1.076 3.713 1.487L8 6.922 4.307 5.438z"/>
        <path d="M8 5.875 5.357 6.938l1.34.539 1.305-.526 1.31.526 1.346-.54L8 5.876zM4.016 7.477l-2.391.96L8 11l6.406-2.562-2.402-.961-1.346.539 1.057.422L8 9.922 4.307 8.438l1.048-.422-1.34-.54z"/>
        <path d="M8 8.875 5.357 9.938l1.34.539 1.305-.526 1.31.526 1.346-.54zm-3.984 1.602-2.391.96L8 14l6.406-2.562-2.402-.961-1.346.539 1.057.422L8 12.922l-3.693-1.484 1.048-.422z"/>
    </g>
</svg>
